src/symbolic/actions/dino-double-tick-symbolic.svg

<svg xmlns="http://www.w3.org/2000/svg" width="16" height="16"><path d="M11.03 3.03c-.22.05-.42.17-.56.34l-6.28 7.19-2.25-2.25c-.38-.38-1.06-.38-1.44 0-.38.38-.38 1.06 0 1.44l3.78 3.75 7.69-8.81c.56-.62-.12-1.83-.94-1.66zM14.75 3.03c-.23.05-.45.18-.6.37l-6.7 7.66-.35-.34-1.42 1.62 1.04 1.06.83.8.73-.87 7.47-8.53c.61-.66-.12-1.95-1-1.77z" fill="#5d656b"/></svg>

<svg xmlns="http://www.w3.org/2000/svg" width="16" height="16" version="1.1">
 <path style="fill:#444444" d="M 11.03,3.03 C 10.81,3.08 10.61,3.2 10.47,3.37 L 4.19,10.56 1.94,8.31 C 1.56,7.93 0.88,7.93 0.5,8.31 0.12,8.69 0.12,9.37 0.5,9.75 L 4.28,13.5 11.97,4.69 C 12.53,4.07 11.85,2.86 11.03,3.03 Z"/>
 <path style="fill:#444444" d="M 14.75,3.03 C 14.52,3.08 14.3,3.21 14.15,3.4 L 7.45,11.06 7.1,10.72 5.68,12.34 6.72,13.4 7.55,14.2 8.28,13.33 15.75,4.8 C 16.36,4.14 15.63,2.85 14.75,3.03 Z"/>
</svg>
